priv/static/svgs/icons_new/sport-gaelic-hurling.svg

<svg width="32" height="32" viewBox="0 0 32 32" fill="none" xmlns="http://www.w3.org/2000/svg">
<path d="M21.4435 7.55336L23.1378 8.95851M5.05107 22.2248L10.4305 26.8535M25.6975 4.18225L27.3681 5.57004C27.6447 5.79982 27.4545 6.24079 27.0927 6.20814L25.7466 6.08705C25.5992 6.07382 25.4548 6.13334 25.3616 6.24575L11.5318 22.9273L8.82091 20.6956L24.6182 4.24176C24.9041 3.9442 25.3789 3.91775 25.6975 4.18225ZM8.58667 20.4439L11.9579 23.3175C12.0392 23.3869 12.0791 23.4915 12.0634 23.596C11.9982 24.0296 11.7076 25.2462 10.4301 26.8535C10.4301 26.8535 8.23891 29.1699 5.21246 27.2176C4.76431 26.9287 4.5 26.4352 4.5 25.9112V23.1695C4.5 22.6843 4.77024 22.2376 5.20568 22.0028L8.17707 20.401C8.30923 20.3299 8.47273 20.3468 8.58667 20.4435V20.4439ZM20.5963 25.2004C20.5963 26.6383 19.4016 27.804 17.9278 27.804C16.454 27.804 15.2593 26.6383 15.2593 25.2004C15.2593 23.7624 16.454 22.5967 17.9278 22.5967C19.4016 22.5967 20.5963 23.7624 20.5963 25.2004Z" stroke="black" stroke-miterlimit="10"/>
</svg>

<svg width="32" height="32" viewBox="0 0 32 32" fill="none" xmlns="http://www.w3.org/2000/svg">
  <symbol id="item" viewBox="0 0 32 32" stroke-width="1" fill="none">
    <path d="m21.444 7.553 1.694 1.406M5.05 22.225l5.38 4.628m15.267-22.67 1.67 1.387c.277.23.087.67-.275.638l-1.346-.121a.448.448 0 0 0-.385.159l-13.83 16.681-2.711-2.231L24.618 4.242a.797.797 0 0 1 1.08-.06ZM8.587 20.442l3.37 2.874c.082.07.122.174.106.279-.065.434-.355 1.65-1.633 3.258 0 0-2.191 2.316-5.218.364A1.554 1.554 0 0 1 4.5 25.91V23.17c0-.485.27-.931.706-1.166L8.177 20.4a.367.367 0 0 1 .41.043Zm12.01 4.757c0 1.438-1.195 2.604-2.67 2.604-1.473 0-2.668-1.166-2.668-2.604 0-1.438 1.195-2.603 2.669-2.603s2.668 1.165 2.668 2.603Z" stroke="currentColor" stroke-miterlimit="10"/>
  </symbol>
</svg>
